Flat-Remix-Dark/apps/scalable/deadbeef.svg

<svg width="512" height="512" version="1.1" viewBox="0 0 384 384" xmlns="http://www.w3.org/2000/svg">
 <g style="fill-opacity:.2;fill:rgb(0%,0%,0%)">
  <path d="m96 101.99609v96.003906l54.003906-36.003906 54 36.003906-108.00391 72v24l144.00391-96-72-48.003906z" style="fill-rule:evenodd;fill:rgb(0%,0%,0%)"/>
 </g>
 <path d="m88.238283 31.501482c-7.425781-0.16407-14.609374 2.53906-19.925781 7.5-5.316405 4.96093-8.312499 11.75781-8.312499 18.85937v283.30077c0.0078 9.41406 5.269531 18.11328 13.808594 22.81641 8.535156 4.70703 19.05078 4.70312 27.589843-4e-3l208.80468-141.63663c8.53907-4.71093 13.79688-13.41406 13.79688-22.83203 0-9.42187-5.2578-18.125-13.79688-22.83594l-208.80468-141.65233c-4.011719-2.21094-8.535157-3.42187-13.164063-3.52344z" style="opacity:.3"/>
 <g transform="translate(24 -.00243544)">
  <path d="m64.238281 24.003906c-7.425781-0.164062-14.609375 2.539063-19.925781 7.5-5.316406 4.960938-8.3125 11.757813-8.3125 18.859375v283.30078c0.0078 9.41406 5.269531 18.11328 13.808594 22.81641 8.535156 4.70703 19.050781 4.70312 27.589844-4e-3l208.80468-141.63663c8.53907-4.71093 13.79688-13.41406 13.79688-22.83203 0-9.42187-5.25781-18.125-13.79688-22.83594l-208.80468-141.65234c-4.011719-2.210937-8.535157-3.421875-13.164063-3.523437z"/>
  <path d="m74.084617 70.775755v121.21982l68.191083-45.45743 68.18615 45.45743-136.37723 90.9198v30.30496l181.83467-121.22476-90.91487-60.60991z" style="fill-rule:evenodd;fill:#24aa6e"/>
 </g>
 <path transform="scale(.75)" d="m130.7793 94.365234v9.999996l121.22656 80.8125 113.7207 75.8125 7.5-5-121.2207-80.8125-121.22656-80.812496zm174.33593 166.625l-174.33593 116.22657v10l181.83593-121.22657-7.5-5z" style="fill-rule:evenodd;opacity:.3"/>
</svg>

<svg xmlns="http://www.w3.org/2000/svg" xmlns:xlink="http://www.w3.org/1999/xlink" width="384pt" height="384pt" version="1.1" viewBox="0 0 384 384">
 <defs>
  <filter id="alpha" width="100%" height="100%" x="0%" y="0%" filterUnits="objectBoundingBox">
   <feColorMatrix in="SourceGraphic" type="matrix" values="0 0 0 0 1 0 0 0 0 1 0 0 0 0 1 0 0 0 1 0"/>
  </filter>
  <mask id="mask1">
   <g filter="url(#alpha)">
    <rect width="384" height="384" x="0" y="0" style="fill:rgb(0%,0%,0%);fill-opacity:0.2"/>
   </g>
  </mask>
  <clipPath id="clip2">
   <rect width="384" height="384" x="0" y="0"/>
  </clipPath>
  <g id="surface8" clip-path="url(#clip2)">
   <path style="fill-rule:evenodd;fill:rgb(0%,0%,0%)" d="M 96 101.996094 L 96 198 L 150.003906 161.996094 L 204.003906 198 L 96 270 L 96 294 L 240.003906 198 L 168.003906 149.996094 Z M 96 101.996094"/>
  </g>
 </defs>
 <g transform="translate(24,-0.00243544)">
  <g>
   <path d="M 64.238281,24.003906 C 56.8125,23.839844 49.628906,26.542969 44.3125,31.503906 38.996094,36.464844 36,43.261719 36,50.363281 V 333.66406 c 0.0078,9.41406 5.269531,18.11328 13.808594,22.81641 8.535156,4.70703 19.050781,4.70312 27.589844,-0.004 L 286.20312,214.83984 C 294.74219,210.12891 300,201.42578 300,192.00781 c 0,-9.42187 -5.25781,-18.125 -13.79688,-22.83594 L 77.398438,27.519531 C 73.386719,25.308594 68.863281,24.097656 64.234375,23.996094 Z"/>
   <use width="100%" height="100%" x="0" y="0" mask="url(#mask1)" xlink:href="#surface8"/>
   <path d="M 74.084617,70.775755 V 191.99558 l 68.191083,-45.45743 68.18615,45.45743 -136.377233,90.9198 v 30.30496 L 255.91929,191.99558 165.00442,131.38567 Z m 0,0" style="fill:#24aa6e;fill-rule:evenodd"/>
  </g>
 </g>
 <path style="fill-rule:evenodd;opacity:0.3" d="M 130.7793 94.365234 L 130.7793 104.36523 L 252.00586 185.17773 L 365.72656 260.99023 L 373.22656 255.99023 L 252.00586 175.17773 L 130.7793 94.365234 z M 305.11523 260.99023 L 130.7793 377.2168 L 130.7793 387.2168 L 312.61523 265.99023 L 305.11523 260.99023 z" transform="scale(0.75)"/>
</svg>
